icons/svg/24x24/renew vertical/outline.svg

<svg width="24" height="24" fill="none" xmlns="http://www.w3.org/2000/svg">
  <path fill-rule="evenodd" clip-rule="evenodd" d="M12 18h-2c-1.654 0-3-1.346-3-3V9h3L6 3 2 9h3v6c0 2.757 2.243 5 5 5h2a1 1 0 100-2zm7-3h3l-4 6-4-6h3V9c0-1.654-1.346-3-3-3h-2a1 1 0 110-2h2c2.757 0 5 2.243 5 5v6z" fill="#000"/>
</svg>

<svg xmlns="http://www.w3.org/2000/svg" width="24" height="24" viewBox="0 0 24 24">
  <path fill-rule="evenodd" d="M12,18 L10,18 C8.346,18 7,16.654 7,15 L7,9 L10,9 L6,3 L2,9 L5,9 L5,15 C5,17.757 7.243,20 10,20 L12,20 C12.552,20 13,19.553 13,19 C13,18.447 12.552,18 12,18 L12,18 Z M19,15 L22,15 L18,21 L14,15 L17,15 L17,9 C17,7.346 15.654,6 14,6 L12,6 C11.448,6 11,5.553 11,5 C11,4.447 11.448,4 12,4 L14,4 C16.757,4 19,6.243 19,9 L19,15 Z"/>
</svg>
